src/assets/icons/weeks,simple,06.svg

<svg width="48" height="48" viewBox="0 0 48 48" fill="none" xmlns="http://www.w3.org/2000/svg">
<rect opacity="0.2" x="5" y="5" width="38" height="38" rx="4" fill="black"/>
<path d="M5 13C5 9.22876 5 7.34315 6.17157 6.17157C7.34315 5 9.22876 5 13 5H35C38.7712 5 40.6569 5 41.8284 6.17157C43 7.34315 43 9.22876 43 13V15H5V13Z" fill="black"/>
<path d="M24.1918 38.2386C28.0781 38.2557 30.7287 35.7074 30.7202 32.1534C30.7287 28.8807 28.4446 26.5199 25.3509 26.5199C23.4332 26.5199 21.7372 27.4403 20.9531 28.983H20.8338C20.8509 25.5824 22.044 23.4688 24.3196 23.4688C25.6577 23.4688 26.6207 24.2017 26.902 25.4205H30.5412C30.1918 22.5483 27.8054 20.3068 24.3196 20.3068C20.0071 20.3068 17.2372 23.8011 17.2202 29.6648C17.2116 36.0568 20.6037 38.2216 24.1918 38.2386ZM24.1747 35.3409C22.4702 35.3409 21.2088 33.9688 21.2088 32.2642C21.2173 30.5682 22.5043 29.1875 24.2003 29.1875C25.9048 29.1875 27.1491 30.5256 27.1406 32.2557C27.1491 34.0028 25.8793 35.3409 24.1747 35.3409Z" fill="black"/>
</svg>

<svg xmlns="http://www.w3.org/2000/svg" width="48" height="48" fill="none" viewBox="0 0 48 48">
  <rect width="38" height="38" x="5" y="5" fill="#000" opacity=".2" rx="4"/>
  <path fill="#000" d="M5 13c0-3.771 0-5.657 1.172-6.828C7.343 5 9.229 5 13 5h22c3.771 0 5.657 0 6.828 1.172C43 7.343 43 9.229 43 13v2H5v-2zM24.192 38.239c3.886.017 6.537-2.532 6.528-6.086.009-3.272-2.275-5.633-5.37-5.633-1.917 0-3.613.92-4.397 2.463h-.12c.018-3.4 1.211-5.514 3.487-5.514 1.338 0 2.3.733 2.582 1.951h3.64c-.35-2.872-2.737-5.113-6.222-5.113-4.313 0-7.083 3.494-7.1 9.358-.008 6.392 3.384 8.557 6.972 8.574zm-.017-2.898c-1.705 0-2.966-1.372-2.966-3.077.008-1.696 1.295-3.077 2.991-3.077 1.705 0 2.95 1.339 2.94 3.069.01 1.747-1.26 3.085-2.965 3.085z"/>
</svg>
